!!!SOCIAL_FUNCTION:	songs of dances presented at makah day celebrations
!!!PDT:	1939
!!!OTL: No_67_Entering_Dance_Song.krn
!!!LANG: Non-Tone
!!!LING_GROUP: Wakashan
!!!REG: Pacific Northwest
**kern
*staff1
=1-
*clefF4
*k[f#]
*M3/4
4d\
8d\L
8d\J
8d\L
8e\J
=2||
*M2/4
8d^\L
8A\J
8A\L
8d\J
=3
8e\L
8d\J
16d\LL
16c\J
8c\J
=4
8c^\L
8A\J
8A\L
8D\J
=5
2A\
=6||
*M3/4
12B\L
12A\
12A\J
8A\
8r
8c\L
8d\J
=7
4..d\
16e\
8.d\L
16c\Jk
=8
8A\L
8D\J
4A\
16A\LL
16G\J
8G\J
=9||
*M2/4
8G^\L
8E\J
8E\L
8E\J
=10||
*M2/4
8E^\L
8D\J
8D\L
8D\J
=11
4E\
8E\L
8E\J
=12
8E^\L
8D\J
8D\L
8E\J
=13
2D\
=14
4E\
8r
16.r
32d\
=15||
*M3/4
4d\
8e\L
8d\J
8d\L
16A\Jk
32r
32d\
=16||
*M3/4
(4d\
12d\L)
12c\
12A\J
8A\
16.r
32A\
=17
4A\
8e\L
8d\J
8.d\L
16c\Jk
=18||
*M2/4
4..d\
16c\
=19
8c\L
8d\J
8d\L
8c\J
=20
8c\L
8A\J
8A\L
16.G\L
32A\JJk
=21||
*M3/4
4..A\
16G\
8G\L
16G\Jk
32r
32A\
=22
4A\
8B\L
8A\J
8A\L
16G\Jk
32r
32A\
=23
(4A\
12A\L)
12G\
12E\J
8.E\L
16G\Jk
=24
8G\L
8E\J
8E\L
8D\J
8D\
8r
=25
2D\
4r
==
*-
